desktop/svgs/light/coffin.svg

<svg xmlns="http://www.w3.org/2000/svg" viewBox="0 0 384 512"><path d="M370.62 112.7l-98.79-99.23C263.13 4.78 251.6 0 239.38 0h-94.76c-12.22 0-23.75 4.78-32.47 13.5l-98.76 99.2C2.07 124.08-2.52 140.81 1.35 156.34l79.85 320.8c5.1 20.52 23.41 34.86 44.51 34.86h132.58c21.1 0 39.41-14.34 44.51-34.86l79.85-320.77c3.87-15.56-.72-32.29-12.03-43.67zm-98.89 356.72c-1.53 6.23-7.06 10.58-13.44 10.58H125.71c-6.38 0-11.91-4.34-13.44-10.58L32.42 148.59c-1.19-4.75.22-9.86 3.66-13.33l98.73-99.17c2.66-2.64 6.13-4.09 9.81-4.09h94.76c3.69 0 7.16 1.45 9.78 4.06l98.76 99.2c3.44 3.47 4.84 8.58 3.66 13.36l-79.85 320.8zm.28-325.42h-32v-32c0-8.84-7.16-16-16-16H160c-8.84 0-16 7.16-16 16v32h-32c-8.84 0-16 7.16-16 16v64c0 8.84 7.16 16 16 16h32v96c0 8.84 7.16 16 16 16h64c8.84 0 16-7.16 16-16v-96h32c8.84 0 16-7.16 16-16v-64c.01-8.84-7.15-16-15.99-16zm-16 64H208v112h-32V208h-48.01v-32H176v-48h32v48h48.01v32z"/></svg>

<svg xmlns="http://www.w3.org/2000/svg" viewBox="0 0 384 512"><path d="M370.62,112.7,271.83,13.47A45.65,45.65,0,0,0,239.38,0H144.62a45.63,45.63,0,0,0-32.47,13.5L13.39,112.7a46.34,46.34,0,0,0-12,43.64L81.2,477.14A45.83,45.83,0,0,0,125.71,512H258.29a45.83,45.83,0,0,0,44.51-34.86l79.85-320.77a46.39,46.39,0,0,0-12-43.67ZM271.73,469.42A13.83,13.83,0,0,1,258.29,480H125.71a13.82,13.82,0,0,1-13.44-10.58L32.42,148.59a14.16,14.16,0,0,1,3.66-13.33l98.73-99.17A13.84,13.84,0,0,1,144.62,32h94.76a13.78,13.78,0,0,1,9.78,4.06l98.76,99.2a14.22,14.22,0,0,1,3.66,13.36l-79.85,320.8Z"/></svg>
